assets/img/braze_icons/coins-stacked-01.svg

<svg fill="none" height="24" viewBox="0 0 24 24" width="24" xmlns="http://www.w3.org/2000/svg"><g fill="#801ed7"><path d="m10.7979 21.1334c.5102-.1245 1.0009-.2848 1.4377-.4859 1.0967 1.4303 2.8228 2.3525 4.7644 2.3525 3.3137 0 6-2.6863 6-6s-2.6863-6-6-6c-1.0929 0-2.1175.2922-3 .8027v-1.1053c0-.109-.0884-.1974-.1974-.1974-.067 0-.1289.0343-.1679.0887-.1238.1723-.2681.3218-.415.4481-.403.3464-.9276.6131-1.4889.8172-1.1308.4112-2.62677.646-4.2308.646s-3.1-.2348-4.23083-.646c-.5613-.2041-1.08591-.4708-1.48888-.8172-.14688-.1263-.29118-.2758-.41496-.4481-.03908-.0544-.10097-.0887-.16793-.0887-.10902 0-.1974.0884-.1974.1974v2.3026c0 .6772.38057 1.1931.78029 1.5368.40297.3464.92758.6131 1.48888.8172 1.13083.4112 2.6268.646 4.23083.646s3.1-.2348 4.2308-.646c.5613-.2041 1.0859-.4708 1.4889-.8172.1469-.1263.2912-.2758.415-.4481.039-.0544.1009-.0887.1679-.0887.109 0 .1974.0884.1974.1974v.8026c0 .6772-.3806 1.1931-.7803 1.5368-.403.3464-.9276.6131-1.4889.8172-1.1308.4112-2.62677.646-4.2308.646s-3.1-.2348-4.23083-.646c-.5613-.2041-1.08591-.4708-1.48888-.8172-.15134-.1301-.30203-.2952-.41987-.4529-.03868-.0517-.09874-.0839-.16336-.0839-.10945 0-.197577.0898-.19614.1992.01007.7667-.00092 1.5342-.00092 2.3008 0 .6772.38057 1.1931.78029 1.5368.40297.3464.92758.6131 1.48888.8172 1.13083.4112 2.6268.646 4.23083.646 1.20215 0 2.3356-.1318 3.2979-.3666z"/><path clip-rule="evenodd" d="m1 7.5v-2.5c0-.67725.38057-1.19312.78029-1.53678.37779-.32479.86248-.57947 1.38409-.77822.03477-.01325.06971-.02625.10479-.03901 1.13083-.41121 2.6268-.64599 4.23083-.64599s3.1.23478 4.2308.64599c.5613.20411 1.0859.47079 1.4889.81723.3997.34366.7803.85953.7803 1.53678v2.5c0 .67725-.3806 1.19312-.7803 1.53678-.403.34644-.9276.61312-1.4889.81723-1.1308.41119-2.62677.64599-4.2308.64599s-3.1-.2348-4.23083-.64599c-.5613-.20411-1.08591-.47079-1.48888-.81723-.39972-.34366-.78029-.85953-.78029-1.53678z" fill-rule="evenodd"/></g></svg>

<svg width="24" height="24" viewBox="0 0 24 24" fill="none" xmlns="http://www.w3.org/2000/svg">
<path d="M10.7979 21.1334C11.3081 21.0089 11.7988 20.8486 12.2356 20.6475C13.3323 22.0778 15.0584 23 17 23C20.3137 23 23 20.3137 23 17C23 13.6863 20.3137 11 17 11C15.9071 11 14.8825 11.2922 14 11.8027V10.6974C14 10.5884 13.9116 10.5 13.8026 10.5C13.7356 10.5 13.6737 10.5343 13.6347 10.5887C13.5109 10.761 13.3666 10.9105 13.2197 11.0368C12.8167 11.3832 12.2921 11.6499 11.7308 11.854C10.6 12.2652 9.10403 12.5 7.5 12.5C5.89597 12.5 4.4 12.2652 3.26917 11.854C2.70787 11.6499 2.18326 11.3832 1.78029 11.0368C1.63341 10.9105 1.48911 10.761 1.36533 10.5887C1.32625 10.5343 1.26436 10.5 1.1974 10.5C1.08838 10.5 1 10.5884 1 10.6974V13C1 13.6772 1.38057 14.1931 1.78029 14.5368C2.18326 14.8832 2.70787 15.1499 3.26917 15.354C4.4 15.7652 5.89597 16 7.5 16C9.10403 16 10.6 15.7652 11.7308 15.354C12.2921 15.1499 12.8167 14.8832 13.2197 14.5368C13.3666 14.4105 13.5109 14.261 13.6347 14.0887C13.6737 14.0343 13.7356 14 13.8026 14C13.9116 14 14 14.0884 14 14.1974V15C14 15.6772 13.6194 16.1931 13.2197 16.5368C12.8167 16.8832 12.2921 17.1499 11.7308 17.354C10.6 17.7652 9.10403 18 7.5 18C5.89597 18 4.4 17.7652 3.26917 17.354C2.70787 17.1499 2.18326 16.8832 1.78029 16.5368C1.62895 16.4067 1.47826 16.2416 1.36042 16.0839C1.32174 16.0322 1.26168 16 1.19706 16C1.08761 16 0.999483 16.0898 1.00092 16.1992C1.01099 16.9659 1 17.7334 1 18.5C1 19.1772 1.38057 19.6931 1.78029 20.0368C2.18326 20.3832 2.70787 20.6499 3.26917 20.854C4.4 21.2652 5.89597 21.5 7.5 21.5C8.70215 21.5 9.8356 21.3682 10.7979 21.1334Z" fill="#801ED7"/>
<path fill-rule="evenodd" clip-rule="evenodd" d="M1 7.5V5C1 4.32275 1.38057 3.80688 1.78029 3.46322C2.15808 3.13843 2.64277 2.88375 3.16438 2.685C3.19915 2.67175 3.23409 2.65875 3.26917 2.64599C4.4 2.23478 5.89597 2 7.5 2C9.10403 2 10.6 2.23478 11.7308 2.64599C12.2921 2.8501 12.8167 3.11678 13.2197 3.46322C13.6194 3.80688 14 4.32275 14 5V7.5C14 8.17725 13.6194 8.69312 13.2197 9.03678C12.8167 9.38322 12.2921 9.6499 11.7308 9.85401C10.6 10.2652 9.10403 10.5 7.5 10.5C5.89597 10.5 4.4 10.2652 3.26917 9.85401C2.70787 9.6499 2.18326 9.38322 1.78029 9.03678C1.38057 8.69312 1 8.17725 1 7.5Z" fill="#801ED7"/>
</svg>
